images/auc.svg

<svg height="250" viewBox="0 0 250 250" width="250" xmlns="http://www.w3.org/2000/svg" xmlns:xlink="http://www.w3.org/1999/xlink"><linearGradient id="a" gradientTransform="matrix(3.553051 0 0 4.288165 .643223 0)" gradientUnits="userSpaceOnUse" x1="44.311298" x2="70" y1="28.919399" y2="28.919399"><stop offset="0" stop-color="#009bff"/><stop offset=".00947404" stop-color="#009bff"/><stop offset=".9988" stop-color="#00e8ff"/><stop offset="1" stop-color="#00e8ff"/></linearGradient><linearGradient id="b" gradientTransform="matrix(3.553051 0 0 4.288165 .643223 0)" gradientUnits="userSpaceOnUse" x1=".4727" x2="67.584602" y1="29.202299" y2="29.202299"><stop offset="0" stop-color="#002d78"/><stop offset=".2287" stop-color="#002d78"/><stop offset="1" stop-color="#014fbd"/></linearGradient><path d="m158.042969 77.1875h91.3125l-46.1875 93.910156zm0 0" fill="url(#a)"/><path d="m202.8125 171.097656h-90.601562l45.476562-94.769531-36.242188-76.328125-59.335937 125.214844-59.691406 125.214844h238.410156" fill="url(#b)"/></svg>

<!-- Generator: Adobe Illustrator 21.1.0, SVG Export Plug-In . SVG Version: 6.00 Build 0)  -->
<svg xmlns="http://www.w3.org/2000/svg" xmlns:xlink="http://www.w3.org/1999/xlink" width="250px" height="250px" viewBox="0 0 250 250" version="1.1">
<defs>
<linearGradient id="linear0" gradientUnits="userSpaceOnUse" x1="44.311298" y1="28.919399" x2="70" y2="28.919399" gradientTransform="matrix(3.553051,0,0,4.288165,0.643223,0)">
<stop offset="0" style="stop-color:rgb(0%,60.784316%,100%);stop-opacity:1;"/>
<stop offset="0.00947404" style="stop-color:rgb(0%,60.784316%,100%);stop-opacity:1;"/>
<stop offset="0.9988" style="stop-color:rgb(0%,90.980393%,100%);stop-opacity:1;"/>
<stop offset="1" style="stop-color:rgb(0%,90.980393%,100%);stop-opacity:1;"/>
</linearGradient>
<linearGradient id="linear1" gradientUnits="userSpaceOnUse" x1="0.4727" y1="29.202299" x2="67.584602" y2="29.202299" gradientTransform="matrix(3.553051,0,0,4.288165,0.643223,0)">
<stop offset="0" style="stop-color:rgb(0%,17.647059%,47.058824%);stop-opacity:1;"/>
<stop offset="0.2287" style="stop-color:rgb(0%,17.647059%,47.058824%);stop-opacity:1;"/>
<stop offset="1" style="stop-color:rgb(0.392157%,30.980393%,74.117649%);stop-opacity:1;"/>
</linearGradient>
</defs>
<g id="surface1">
<path style=" stroke:none;fill-rule:nonzero;fill:url(#linear0);" d="M 158.042969 77.1875 L 249.355469 77.1875 L 203.167969 171.097656 Z M 158.042969 77.1875 "/>
<path style=" stroke:none;fill-rule:nonzero;fill:url(#linear1);" d="M 202.8125 171.097656 L 112.210938 171.097656 L 157.6875 76.328125 L 121.445312 0 L 62.109375 125.214844 L 2.417969 250.429688 L 240.828125 250.429688 "/>
</g>
</svg>
